X:1
T:Hosanna (Elliott), 88.88.7
T:Hosanna (Elliott), 88.88.7
T:James William Elliott, 1875
T:Public Domain Courtesy of the Cyber Hymnal™
C:James William Elliott, 1875
Z:Public Domain
Z:Courtesy of the Cyber Hymnal™
%%score ( 1 2 ) ( 3 4 )
L:1/8
Q:1/4=108
M:4/4
K:E
V:1 treble 
V:2 treble 
V:3 bass 
V:4 bass 
V:1
 E2 | [FB]2 [EG]2 [EA]2 [CF]2 | [B,E]2 [B,D]2 [B,E]2 [CE]2 | [=DF]2 [EG]2 [EA]2 [EB]2 | %4
 [Ec]2 [EF]2 !fermata![DF]2 [DG]2 | [A,C]2 [CA]2 [B,G]2 [B,F]2 | [B,E]2 [Dc]2 [EB]2 [DB]2 | %7
 [Ee]2 [=DB]2 [CA]2 [EG]2 | (GA) [DF]2 E2 (FG) | [FA]2 [^EG]2 [CFc]2 [CEc]2 | %10
 [CAc]2 d2 [DF] !fermata![EGe]2 |] %11
V:2
 E2 | x8 | x8 | x8 | x8 | x8 | x8 | x8 | E2 x E2 [B,F]2 x | C4 x4 | x2 [D-G] x4 |] %11
V:3
 [E,G,]2 | [D,B,]2 [E,B,]2 [C,A,]2 [A,,A,]2 | [B,,G,]2 [B,,F,]2 [E,G,]2 [A,,A,]2 | %3
 [=D,A,]2 [D,B,]2 [C,A,]2 [B,,G,]2 | [A,,G,]2 [A,,F,]2 !fermata![B,,B,]2 [B,,B,]2 | %5
 [C,G,]2 [C,C]2 [D,B,]2 A,2 | [E,G,]2 [F,A,]2 [G,B,]2 [B,,A,]2 | %7
 [C,G,]2 [G,,E,]2 [A,,E,]2 [A,,C]2 | (B,C) [B,,A,]2 [E,G,]2 (F,G,) | %9
 [C,A,]2 [B,,G,]2 [A,,F,]2 [C,G,B,]2 | [F,C]2 (B,A,) !fermata![E,,E,G,B,]2 x |] %11
V:4
 x2 | x8 | x8 | x8 | x8 | x6 (C,D,) | x8 | x8 | B,,2 x3 =D,2 x | x8 | x2 B,,2 x3 |] %11

